icons/diff-ignored-16.svg

<svg xmlns="http://www.w3.org/2000/svg" width="16" height="16" viewBox="0 0 16 16"><path d="M13.25 1c.966 0 1.75.784 1.75 1.75v10.5A1.75 1.75 0 0113.25 15H2.75A1.75 1.75 0 011 13.25V2.75C1 1.784 1.784 1 2.75 1zM2.75 2.5a.25.25 0 00-.25.25v10.5c0 .138.112.25.25.25h10.5a.25.25 0 00.25-.25V2.75a.25.25 0 00-.25-.25zm8.53 3.28l-5.5 5.5a.749.749 0 01-1.275-.326.749.749 0 01.215-.734l5.5-5.5a.751.751 0 011.042.018.751.751 0 01.018 1.042z"/></svg>

<svg xmlns="http://www.w3.org/2000/svg" width="16" height="16" viewBox="0 0 16 16">
  <defs/>
  <path d="M13.25,1 C14.216,1 15,1.784 15,2.75 L15,13.25 C15,14.216 14.216,15 13.25,15 L2.75,15 C1.784,15 1,14.216 1,13.25 L1,2.75 C1,1.784 1.784,1 2.75,1 Z M2.75,2.5 C2.612,2.5 2.5,2.612 2.5,2.75 L2.5,13.25 C2.5,13.388 2.612,13.5 2.75,13.5 L13.25,13.5 C13.388,13.5 13.5,13.388 13.5,13.25 L13.5,2.75 C13.5,2.612 13.388,2.5 13.25,2.5 Z M11.28,5.78 L5.78,11.28 C5.593,11.481 5.311,11.563 5.046,11.495 C4.78,11.428 4.572,11.22 4.505,10.954 C4.437,10.689 4.519,10.407 4.72,10.22 L10.22,4.72 C10.516,4.445 10.976,4.453 11.262,4.738 C11.547,5.024 11.555,5.484 11.28,5.78 Z"/>
</svg>
